src/topics/icons/stackshare.svg

<svg height="228" preserveAspectRatio="xMidYMid" viewBox="0 0 256 228" width="256" xmlns="http://www.w3.org/2000/svg"><path d="m231.347179 0c13.613241 0 24.647795 10.8933637 24.652821 24.3360823-.005026 0-.005026 178.4218697-.005026 178.4218697 0 13.439056-11.034554 24.336082-24.647795 24.336082h-206.6956737c-13.613241 0-24.6515053-10.897026-24.6515053-24.336082v-178.4218697c0-13.4427186 11.0382643-24.3360823 24.6515053-24.3360823z" fill="#0090f9"/><path d="m195.958986 136.498536c-9.505138 0-17.702632 5.695757-21.369161 13.85296h-29.768113l-11.699193-36.961982 11.856696-36.7495358h29.566655c3.640889 8.2121458 11.867687 13.9591826 21.413116 13.9591826 12.915265 0 23.420365-10.5050999 23.420365-23.4203657s-10.5051-23.4203658-23.420365-23.4203658c-9.094897 0-16.988373 5.2159213-20.867348 12.8090427h-37.313617c-4.307531 0-8.131563 2.7434867-9.512464 6.8239196l-13.530627 40.0680924h-33.159926c-3.582283-8.3549979-11.8823376-14.2192465-21.5339897-14.2192465-12.911603 0-23.4203658 10.5051-23.4203658 23.4203665 0 12.911603 10.5087628 23.416702 23.4203658 23.416702 8.9923362 0 16.8088924-5.095046 20.731822-12.545316h33.8045907l13.53429 40.068092c1.377238 4.080433 5.20127 6.82392 9.5088 6.82392h37.41984c3.856998 7.651727 11.783441 12.911603 20.918629 12.911603 12.915265 0 23.420365-10.5051 23.420365-23.420366 0-12.911603-10.5051-23.416703-23.420365-23.416703zm0-80.1947903c5.996111 0 10.875049 4.8789376 10.875049 10.8750494s-4.878938 10.8750494-10.875049 10.8750494c-5.996112 0-10.871387-4.8789376-10.871387-10.8750494s4.875275-10.8750494 10.871387-10.8750494zm-135.9179717 67.2282443c-5.9961118 0-10.8713866-4.878938-10.8713866-10.871386 0-5.996112 4.8752748-10.87505 10.8713866-10.87505s10.8750494 4.878938 10.8750494 10.87505c0 5.992448-4.8789376 10.871386-10.8750494 10.871386zm135.9179717 47.258298c-5.996112 0-10.871387-4.878937-10.871387-10.875049s4.875275-10.871387 10.871387-10.871387c5.996111 0 10.875049 4.875275 10.875049 10.871387s-4.878938 10.875049-10.875049 10.875049z" fill="#fff"/></svg>

<?xml version="1.0" encoding="UTF-8" standalone="no"?>
<svg width="256px" height="228px" viewBox="0 0 256 228" version="1.1" xmlns="http://www.w3.org/2000/svg" xmlns:xlink="http://www.w3.org/1999/xlink" preserveAspectRatio="xMidYMid">
	<g>
		<path d="M231.347179,0 C244.96042,0 255.994974,10.8933637 256,24.3360823 C255.994974,24.3360823 255.994974,202.757952 255.994974,202.757952 C255.994974,216.197008 244.96042,227.094034 231.347179,227.094034 L24.6515053,227.094034 C11.0382643,227.094034 1.79938042e-15,216.197008 1.79938042e-15,202.757952 L1.79938042e-15,24.3360823 C1.79938042e-15,10.8933637 11.0382643,0 24.6515053,0 L231.347179,0 Z" fill="#0090F9"></path>
		<path d="M195.958986,136.498536 C186.453848,136.498536 178.256354,142.194293 174.589825,150.351496 L144.821712,150.351496 L133.122519,113.389514 L144.979215,76.6399782 L174.54587,76.6399782 C178.186759,84.852124 186.413557,90.5991608 195.958986,90.5991608 C208.874251,90.5991608 219.379351,80.0940609 219.379351,67.1787951 C219.379351,54.2635293 208.874251,43.7584293 195.958986,43.7584293 C186.864089,43.7584293 178.970613,48.9743506 175.091638,56.567472 L137.778021,56.567472 C133.47049,56.567472 129.646458,59.3109587 128.265557,63.3913916 L114.73493,103.459484 L81.575004,103.459484 C77.992721,95.1044861 69.6926664,89.2402375 60.0410143,89.2402375 C47.1294113,89.2402375 36.6206485,99.7453375 36.6206485,112.660604 C36.6206485,125.572207 47.1294113,136.077306 60.0410143,136.077306 C69.0333505,136.077306 76.8499067,130.98226 80.7728363,123.53199 L114.577427,123.53199 L128.111717,163.600082 C129.488955,167.680515 133.312987,170.424002 137.620517,170.424002 L175.040357,170.424002 C178.897355,178.075729 186.823798,183.335605 195.958986,183.335605 C208.874251,183.335605 219.379351,172.830505 219.379351,159.915239 C219.379351,147.003636 208.874251,136.498536 195.958986,136.498536 L195.958986,136.498536 L195.958986,136.498536 Z M195.958986,56.3037457 C201.955097,56.3037457 206.834035,61.1826833 206.834035,67.1787951 C206.834035,73.1749069 201.955097,78.0538445 195.958986,78.0538445 C189.962874,78.0538445 185.087599,73.1749069 185.087599,67.1787951 C185.087599,61.1826833 189.962874,56.3037457 195.958986,56.3037457 L195.958986,56.3037457 L195.958986,56.3037457 Z M60.0410143,123.53199 C54.0449025,123.53199 49.1696277,118.653052 49.1696277,112.660604 C49.1696277,106.664492 54.0449025,101.785554 60.0410143,101.785554 C66.0371261,101.785554 70.9160637,106.664492 70.9160637,112.660604 C70.9160637,118.653052 66.0371261,123.53199 60.0410143,123.53199 L60.0410143,123.53199 L60.0410143,123.53199 Z M195.958986,170.790288 C189.962874,170.790288 185.087599,165.911351 185.087599,159.915239 C185.087599,153.919127 189.962874,149.043852 195.958986,149.043852 C201.955097,149.043852 206.834035,153.919127 206.834035,159.915239 C206.834035,165.911351 201.955097,170.790288 195.958986,170.790288 L195.958986,170.790288 L195.958986,170.790288 Z" fill="#FFFFFF"></path>
	</g>
</svg>
